!! 00000] TT[00
!! NN
!!!OTL: Shier ge yue
!!!ARE: Asia, China,ˇHenan, Yongcheng
!! Ethnic Group: Han
!! IV, 144, 1)
!!!SCT: C0391
!!!YEM: Copyright 1995, estate of Helmut Schaffrath.
**kern
*ICvox
*Ivox
*M3/4
*k[f#]
*G:
{8a
16e
16e
4a
8a
8r
=1
8b
8dd
8e
8g
8g
8r}
=2
{8a
16f#
16e
8a
8f#
8e
8r
=3
8a
16f#
16e
8.B
16e
8d
8r}
=4
{8a
16e
16e
4a
8a
8r
=5
8b
16b
16dd
8e
8g
8g
8r}
=6
{8a
16f#
16e
8a
8f#
8e
8r
=7
8a
16f#
16e
4d
8d
8r}
==
!!!AGN: Xiaodiao. NannÅ siqing
!! Text: hier nicht alle 12 Monate; +++ Grundton wechselt von G nach D!! +++
!!!AMT: simple triple
!!!AIN: vox
!!!EED: Helmut Schaffrath
!!!EEV: 1.0
*-
